src/images/icon/icon_shareSpace.svg

<svg height="20" viewBox="0 0 20 20" width="20" xmlns="http://www.w3.org/2000/svg"><g fill="none" fill-rule="evenodd"><path d="m7.00929228 15.7726229c.89525672.4647635 1.91231387.7273771 2.99070772.7273771 3.5898509 0 6.5-2.9101491 6.5-6.5 0-1.80513309-.7358357-3.43840253-1.9239176-4.61621863-1.174645-1.1644955-2.7913646-1.88378137-4.5760824-1.88378137-3.58985087 0-6.5 2.91014913-6.5 6.5 0 1.0671527.25716717 2.0742407.71290897 2.9626716" stroke="#0080ff" stroke-width="1.5"/><path d="m12.0156327 6.54421907c-.5918658-.34595981-1.2805963-.54421907-2.0156327-.54421907-2.209139 0-4 1.790861-4 4 0 .6567093.15825672 1.2764558.43871321 1.8231825.1988858.3877114.45922514.7387016.76815912 1.0401116.28066887.2738333.60144709.5067439.95269215.6890892.55092721.2860083 1.17680854.4476167 1.84043552.4476167 2.209139 0 4-1.790861 4-4 0-.74490725-.2036199-1.44225652-.5582366-2.03942477" stroke="#0080ff" stroke-width="1.5"/><path d="m10 11.5c.8284271 0 1.5-.6715729 1.5-1.5 0-.41656917-.1698082-.79347751-.443981-1.06528122-.2710719-.26872973-.644161-.43471878-1.056019-.43471878-.82842712 0-1.5.67157288-1.5 1.5 0 .246266.05934627.4786709.16451745.6836934.07458218.1453918.17220943.2770131.28805967.3900419.10525083.1026875.22554266.1900289.35725956.2584084.20659771.1072532.4413032.1678563.69016332.1678563z" fill="#0080ff"/></g></svg>

<?xml version="1.0" encoding="UTF-8"?>
<svg width="20px" height="20px" viewBox="0 0 20 20" version="1.1" xmlns="http://www.w3.org/2000/svg" xmlns:xlink="http://www.w3.org/1999/xlink">
    
    <g id="Dashboard" stroke="none" stroke-width="1" fill="none" fill-rule="evenodd">
        <g id="00-Icon、DropDown" transform="translate(-419.000000, -330.000000)">
            <g id="编组-21" transform="translate(419.000000, 330.000000)">
                <path d="M7.00929228,15.7726229 C7.904549,16.2373864 8.92160615,16.5 10,16.5 C13.5898509,16.5 16.5,13.5898509 16.5,10 C16.5,8.19486691 15.7641643,6.56159747 14.5760824,5.38378137 C13.4014374,4.21928587 11.7847178,3.5 10,3.5 C6.41014913,3.5 3.5,6.41014913 3.5,10 C3.5,11.0671527 3.75716717,12.0742407 4.21290897,12.9626716" id="路径" stroke="#0080FF" stroke-width="1.5" transform="translate(10.000000, 10.000000) rotate(-360.000000) translate(-10.000000, -10.000000) "></path>
                <path d="M12.0156327,6.54421907 C11.4237669,6.19825926 10.7350364,6 10,6 C7.790861,6 6,7.790861 6,10 C6,10.6567093 6.15825672,11.2764558 6.43871321,11.8231825 C6.63759901,12.2108939 6.89793835,12.5618841 7.20687233,12.8632941 C7.4875412,13.1371274 7.80831942,13.370038 8.15956448,13.5523833 C8.71049169,13.8383916 9.33637302,14 10,14 C12.209139,14 14,12.209139 14,10 C14,9.25509275 13.7963801,8.55774348 13.4417634,7.96057523" id="路径" stroke="#0080FF" stroke-width="1.5" transform="translate(10.000000, 10.000000) rotate(-360.000000) translate(-10.000000, -10.000000) "></path>
                <path d="M10,11.5 C10.8284271,11.5 11.5,10.8284271 11.5,10 C11.5,9.58343083 11.3301918,9.20652249 11.056019,8.93471878 C10.7849471,8.66598905 10.411858,8.5 10,8.5 C9.17157288,8.5 8.5,9.17157288 8.5,10 C8.5,10.246266 8.55934627,10.4786709 8.66451745,10.6836934 C8.73909963,10.8290852 8.83672688,10.9607065 8.95257712,11.0737353 C9.05782795,11.1764228 9.17811978,11.2637642 9.30983668,11.3321437 C9.51643439,11.4393969 9.75113988,11.5 10,11.5 Z" id="椭圆形" fill="#0080FF" transform="translate(10.000000, 10.000000) rotate(-360.000000) translate(-10.000000, -10.000000) "></path>
            </g>
        </g>
    </g>
</svg>
